X:8131
T:John Naughton's
M:6/8
L:1/8
Q:100
R:jig
D:Gearo/id O' hAllmhura/in, _Traditional Music from Clare and Beyond_
K:GDor
|:DGG GAc|dfd cAG|{B}AFF ~F3|FAG FDC|
DGG GAc|def g2g|{a}gfd cAc|1 dGG G2F:|2 dGG G2f|
|:{g}fde f2g|fde fcB|AFF CFF|FAG F/2E/2DC
|1 fde f2g|fde fdc|=BGG {A}GA=B|ced c2f:|
|2 DGG GAc|def g2g|{a}gfd cAc|dGG G3||
